images/group.svg

<svg width="41" height="47" fill="none" xmlns="http://www.w3.org/2000/svg"><path fill-rule="evenodd" clip-rule="evenodd" d="m6 0 7.0078 6.6341L0 6.6265v32.1872h34V26.507l7 6.6268V0H6Zm27.6924 25.7283L13.8226 6.918h19.8698v18.8103Zm-6.1693 8.3772H5.3801V12.4579h1.5652v20.1818h20.5778v1.4658Zm-16.9142 8.9936-.8179 1.6846-.8179-1.6846h-.686l1.1939 2.2461v1.3086h.6201v-1.3086l1.1914-2.2461h-.6836Zm1.0278 3.5547.2881-.8276h1.377l.2905.8276h.6445l-1.3452-3.5547h-.5542l-1.3428 3.5547h.6421Zm.9766-2.8003.5151 1.4746h-1.0303l.5152-1.4746Zm3.2568 1.3892a.8074.8074 0 0 0-.1343.4516c0 .2995.105.5428.315.73.2116.1856.4931.2783.8447.2783s.6543-.0952.9082-.2856l.2002.2368h.6885l-.5225-.6177c.2051-.2799.3076-.6388.3076-1.0766h-.5151c0 .2392-.0496.4565-.1489.6518l-.6861-.8105.2417-.1758c.1709-.1237.2938-.2474.3687-.3711a.7847.7847 0 0 0 .1123-.4101c0-.2247-.083-.4126-.249-.564-.1644-.153-.376-.2295-.6348-.2295-.2865 0-.5143.0814-.6836.2441-.1693.1612-.2539.3809-.2539.6592 0 .1139.0269.2319.0806.354.0553.1221.1522.2702.2905.4444-.2637.1888-.4403.3523-.5298.4907Zm1.604.7861c-.1741.1335-.3613.2002-.5615.2002-.1774 0-.319-.0513-.4248-.1538s-.1587-.236-.1587-.4004c0-.1904.0977-.3597.293-.5078l.0757-.0537.7763.9155Zm-.6372-1.5747c-.1676-.2067-.2515-.3784-.2515-.5151 0-.1189.0342-.2173.1026-.2954.0683-.0782.1603-.1172.2759-.1172.1074 0 .1961.0333.2661.1001.07.0651.105.144.105.2368 0 .14-.0505.2547-.1514.3442l-.0757.0611-.271.1855Zm5.7861 1.9312c.2442-.2133.3842-.5095.42-.8887h-.6153c-.0325.2539-.1098.4354-.2319.5444-.1221.1091-.3044.1636-.5469.1636-.2653 0-.4671-.1009-.6054-.3027-.1368-.2019-.2051-.4948-.2051-.879v-.3149c.0032-.3792.0765-.6665.2197-.8618.1449-.1969.3516-.2954.6201-.2954.2311 0 .4061.0569.5249.1709.1205.1123.1953.2962.2246.5517h.6153c-.0391-.389-.1783-.6901-.4175-.9033-.2393-.2132-.555-.3198-.9473-.3198-.2913 0-.5485.0692-.7715.2075-.2213.1384-.3914.3353-.5102.5908-.1188.2556-.1782.551-.1782.8863v.332c.0048.3271.0659.6144.1831.8618.1172.2474.2832.4387.498.5737.2165.1335.4663.2002.7495.2002.4053 0 .73-.1058.9741-.3173Zm3.6304-.4981c.1205-.2637.1807-.5697.1807-.918v-.1977c-.0016-.3467-.0635-.6502-.1856-.9107-.122-.262-.2954-.4622-.52-.6005-.223-.14-.4793-.21-.769-.21s-.5469.0708-.7715.2124c-.223.14-.3963.3426-.52.6079-.1221.2653-.1831.5713-.1831.918v.2002c.0016.3401.0634.6404.1855.9008.1237.2605.2979.4615.5225.6031.2262.1399.4834.2099.7715.2099.2913 0 .5485-.07.7714-.2099.2246-.1416.3972-.3434.5176-.6055Zm-.6616-2.0093c.1497.21.2246.5119.2246.9058v.1855c0 .4004-.0741.7048-.2222.9131-.1464.2084-.3564.3125-.6298.3125-.2702 0-.4818-.1066-.6348-.3198-.1514-.2132-.2271-.5151-.2271-.9058v-.205c.0033-.3825.0798-.6779.2295-.8863.1514-.2099.3605-.3149.6275-.3149.2734 0 .4842.105.6323.3149Z" fill="#AFB1B8"/></svg>

<svg width="41" height="47" viewBox="0 0 41 47" fill="none" xmlns="http://www.w3.org/2000/svg">
<path fill-rule="evenodd" clip-rule="evenodd" d="M6 0L13.0078 6.63413L0 6.62646V38.8137H34V26.507L41 33.1338V0H6ZM33.6924 25.7283L13.8226 6.91796H33.6924V25.7283ZM27.5231 34.1055H5.38008V12.4579H6.9453V32.6397H27.5231V34.1055ZM10.6089 43.0991L9.79102 44.7837L8.97314 43.0991H8.28711L9.48096 45.3452V46.6538H10.1011V45.3452L11.2925 43.0991H10.6089ZM11.6367 46.6538L11.9248 45.8262H13.3018L13.5923 46.6538H14.2368L12.8916 43.0991H12.3374L10.9946 46.6538H11.6367ZM12.6133 43.8535L13.1284 45.3281H12.0981L12.6133 43.8535ZM15.8701 45.2427C15.7806 45.3794 15.7358 45.5299 15.7358 45.6943C15.7358 45.9938 15.8408 46.2371 16.0508 46.4243C16.2624 46.6099 16.5439 46.7026 16.8955 46.7026C17.2471 46.7026 17.5498 46.6074 17.8037 46.417L18.0039 46.6538H18.6924L18.1699 46.0361C18.375 45.7562 18.4775 45.3973 18.4775 44.9595H17.9624C17.9624 45.1987 17.9128 45.416 17.8135 45.6113L17.1274 44.8008L17.3691 44.625C17.54 44.5013 17.6629 44.3776 17.7378 44.2539C17.8127 44.1286 17.8501 43.9919 17.8501 43.8438C17.8501 43.6191 17.7671 43.4312 17.6011 43.2798C17.4367 43.1268 17.2251 43.0503 16.9663 43.0503C16.6798 43.0503 16.452 43.1317 16.2827 43.2944C16.1134 43.4556 16.0288 43.6753 16.0288 43.9536C16.0288 44.0675 16.0557 44.1855 16.1094 44.3076C16.1647 44.4297 16.2616 44.5778 16.3999 44.752C16.1362 44.9408 15.9596 45.1043 15.8701 45.2427ZM17.4741 46.0288C17.3 46.1623 17.1128 46.229 16.9126 46.229C16.7352 46.229 16.5936 46.1777 16.4878 46.0752C16.382 45.9727 16.3291 45.8392 16.3291 45.6748C16.3291 45.4844 16.4268 45.3151 16.6221 45.167L16.6978 45.1133L17.4741 46.0288ZM16.8369 44.4541C16.6693 44.2474 16.5854 44.0757 16.5854 43.939C16.5854 43.8201 16.6196 43.7217 16.688 43.6436C16.7563 43.5654 16.8483 43.5264 16.9639 43.5264C17.0713 43.5264 17.16 43.5597 17.23 43.6265C17.3 43.6916 17.335 43.7705 17.335 43.8633C17.335 44.0033 17.2845 44.118 17.1836 44.2075L17.1079 44.2686L16.8369 44.4541ZM22.623 46.3853C22.8672 46.172 23.0072 45.8758 23.043 45.4966H22.4277C22.3952 45.7505 22.3179 45.932 22.1958 46.041C22.0737 46.1501 21.8914 46.2046 21.6489 46.2046C21.3836 46.2046 21.1818 46.1037 21.0435 45.9019C20.9067 45.7 20.8384 45.4071 20.8384 45.0229V44.708C20.8416 44.3288 20.9149 44.0415 21.0581 43.8462C21.203 43.6493 21.4097 43.5508 21.6782 43.5508C21.9093 43.5508 22.0843 43.6077 22.2031 43.7217C22.3236 43.834 22.3984 44.0179 22.4277 44.2734H23.043C23.0039 43.8844 22.8647 43.5833 22.6255 43.3701C22.3862 43.1569 22.0705 43.0503 21.6782 43.0503C21.3869 43.0503 21.1297 43.1195 20.9067 43.2578C20.6854 43.3962 20.5153 43.5931 20.3965 43.8486C20.2777 44.1042 20.2183 44.3996 20.2183 44.7349V45.0669C20.2231 45.394 20.2842 45.6813 20.4014 45.9287C20.5186 46.1761 20.6846 46.3674 20.8994 46.5024C21.1159 46.6359 21.3657 46.7026 21.6489 46.7026C22.0542 46.7026 22.3789 46.5968 22.623 46.3853ZM26.2534 45.8872C26.3739 45.6235 26.4341 45.3175 26.4341 44.9692V44.7715C26.4325 44.4248 26.3706 44.1213 26.2485 43.8608C26.1265 43.5988 25.9531 43.3986 25.7285 43.2603C25.5055 43.1203 25.2492 43.0503 24.9595 43.0503C24.6698 43.0503 24.4126 43.1211 24.188 43.2627C23.965 43.4027 23.7917 43.6053 23.668 43.8706C23.5459 44.1359 23.4849 44.4419 23.4849 44.7886V44.9888C23.4865 45.3289 23.5483 45.6292 23.6704 45.8896C23.7941 46.1501 23.9683 46.3511 24.1929 46.4927C24.4191 46.6326 24.6763 46.7026 24.9644 46.7026C25.2557 46.7026 25.5129 46.6326 25.7358 46.4927C25.9604 46.3511 26.133 46.1493 26.2534 45.8872ZM25.5918 43.8779C25.7415 44.0879 25.8164 44.3898 25.8164 44.7837V44.9692C25.8164 45.3696 25.7423 45.674 25.5942 45.8823C25.4478 46.0907 25.2378 46.1948 24.9644 46.1948C24.6942 46.1948 24.4826 46.0882 24.3296 45.875C24.1782 45.6618 24.1025 45.3599 24.1025 44.9692V44.7642C24.1058 44.3817 24.1823 44.0863 24.332 43.8779C24.4834 43.668 24.6925 43.563 24.9595 43.563C25.2329 43.563 25.4437 43.668 25.5918 43.8779Z" fill="#AFB1B8"/>
</svg>
